X:19146
T:Xota de Payares (Arrg.)
T:Jota de Payares (Arrg.)
R:Xota
C:Tradicional
S:Música Tradicional Asturiana, (C) Tello & Tito. Asturies, 2001.
S:http://pagina.de/MusTradAst <telloytito@asturies.org>
O:Payares (L.lena)
A:Asturies
G:Arrg.
Z:ByD IDEA
M:3/8
L:1/8
Q:1/8=192
K:C
"Vrs.1"
|"F"CCC|"Am"CDE|"F"FFE|
|"G"DFE|"Dm"D2 C|"F"CD/C/ "G"B,-|B,2 z|
|"Dm"DFE|"Dm"DFE|"G"DE/D/ "F"C-|C2 z|
|:"Dm"D3/2D/D|"Dm"DCB,|"F"CD/C/ "G"B,-|B,2 z|
|"Dm"DFE|"Dm"DFE|"G"DE/D/ "F"C-|C2 z:|
"Vrs.2"
|"C"CCC|"C"CDE|"Dm"FFE|
|"Dm"DFE|"G7"D2 C|"C"CD/C/ "G"B,-|B,2 z|
|"Dm"DFE|"G7"DFE|"C"DE/D/ "C"C-|C2 z|
|:"Dm"D3/2D/D|"G7"DCB,|"C"CD/C/ "G"B,-|B,2 z|
|"Dm"DFE|"G7"DFE|"C"DE/D/ "C"C-|C2 z:|


